dist/img/svg/linked.svg

<?xml version="1.0" encoding="UTF-8" standalone="no"?>
<svg width="26px" height="27px" viewBox="0 0 26 27" version="1.1" xmlns="http://www.w3.org/2000/svg" xmlns:xlink="http://www.w3.org/1999/xlink">
    <!-- Generator: Sketch 3.6.1 (26313) - http://www.bohemiancoding.com/sketch -->
    <title>linked</title>
    <desc>Created with Sketch.</desc>
    <defs></defs>
    <g id="Page-1" stroke="none" stroke-width="1" fill="none" fill-rule="evenodd">
        <g id="linked">
            <g id="Group-3" transform="translate(0.000000, 0.105889)">
                <path d="M12.6343657,26.1197863 C19.6120229,26.1197863 25.26888,20.4171196 25.26888,13.3812842 C25.26888,6.34694679 19.6120229,0.642782182 12.6343657,0.642782182 C5.65670857,0.642782182 -0.000148571429,6.34694679 -0.000148571429,13.3812842 C-0.000148571429,20.4171196 5.65670857,26.1197863 12.6343657,26.1197863" id="Fill-1" fill="#0073B5"></path>
                <path d="M8.42923462,7.01426683 C9.21708077,7.01426683 9.85735,7.68121394 9.85735,8.5022476 C9.85735,9.3240024 9.21708077,9.99094952 8.42923462,9.99094952 C7.63931154,9.99094952 6.99996538,9.3240024 6.99996538,8.5022476 C6.99996538,7.68121394 7.63931154,7.01426683 8.42923462,7.01426683 L8.42923462,7.01426683 Z M7.19635,19.3797716 L9.66085,19.3797716 L9.66085,11.1200361 L7.19635,11.1200361 L7.19635,19.3797716 Z" id="Fill-1" fill="#FFFFFF"></path>
            </g>
            <path d="M11.2066923,11.2259375 L13.5703462,11.2259375 L13.5703462,12.3545433 L13.6033462,12.3545433 C13.9324231,11.7051442 14.7363077,11.020649 15.9351538,11.020649 C18.4306923,11.020649 18.8915385,12.7314663 18.8915385,14.9551442 L18.8915385,19.4856731 L16.4287692,19.4856731 L16.4287692,15.4689663 C16.4287692,14.5111538 16.4118077,13.2790625 15.1481154,13.2790625 C13.8658462,13.2790625 13.669,14.3224519 13.669,15.3997356 L13.669,19.4856731 L11.2066923,19.4856731 L11.2066923,11.2259375 Z" id="Fill-4" fill="#FFFFFF"></path>
        </g>
    </g>
</svg>

<svg width="26" height="27" viewBox="0 0 26 27" xmlns="http://www.w3.org/2000/svg" xmlns:xlink="http://www.w3.org/1999/xlink"><g id="Page-1" stroke="none" stroke-width="1" fill="none" fill-rule="evenodd"><g id="linked"><g id="Group-3" transform="translate(0 .106)"><path d="M12.634 26.12c6.978 0 12.635-5.703 12.635-12.739 0-7.034-5.657-12.738-12.635-12.738C5.657.643 0 6.347 0 13.38c0 7.037 5.657 12.74 12.634 12.74" id="Fill-1" fill="#0073B5"/><path d="M8.43 7.014c.787 0 1.427.667 1.427 1.488 0 .822-.64 1.489-1.428 1.489C7.64 9.99 7 9.324 7 8.502c0-.82.64-1.488 1.43-1.488zM7.195 19.38H9.66v-8.26H7.196v8.26z" id="Fill-1" fill="#FFF"/></g><path d="M11.207 11.226h2.363v1.129h.033c.33-.65 1.133-1.334 2.332-1.334 2.496 0 2.957 1.71 2.957 3.934v4.53h-2.463V15.47c0-.958-.017-2.19-1.28-2.19-1.283 0-1.48 1.043-1.48 2.12v4.087h-2.462v-8.26z" id="Fill-4" fill="#FFF"/></g></g></svg>
